X: 42728
T: Whistling Prince
R: hornpipe
M: 4/4
K: Gmajor
|:((3DEF)|G>B A>F G2 (3DEF|G>B d>e d2 B>A|(3GAB d>e d2 B>A|(3GAB A>F G2:|
|:z d|e>f g>d e>f g2|e>f g>a g2 f>e|d2 d>e d2 B>A|(3GAB A>F G3:|

